X:1
T:11 Etudes in the form of Old Dances op.19
C:Viktor Kosenko
%%score { ( 1 3 5 ) | ( 2 4 ) }
L:1/8
Q:1/4=110
M:4/4
K:Db
V:1 treble nm="Piano" snm="Pno."
V:3 treble 
V:5 treble 
V:2 bass 
V:4 bass 
V:1
"^Moderato"!p! F | ([C=A]/[DB]/)[DB]- [DB]([B,DF] [F,B,D]!<(![B,DF][DFB][FAc])!<)! | %2
 ([=Ac]/[Bd]/)[Bd]- [Bd]([DFB]!<(! [B,DF][DFB][FBd][Fce])!<)! | %3
!mf! ([Fdf]/g/e/f/ d/e/c/e/ d/e/c/e/ B/d/=G/=A/) | B2- B(=G/=A/ B/d/c/d/ B/_E/F/G/) | %5
 =A2- A(F/=G/ A/B/A/G/ G/F/F/=E/) | F2- F=D/=E/ F/=G/=A/G/ F/E/D/E/ | %7
 F/=G/A/G/ F/=E/=D/E/ F([=Ac]/[GB]/- [GB]/[FA][EG]/ | [=A,F]6) z F | %9
!p! ([C=A]/[DB]/)[DB]- [DB]([B,DF]!<(! [F,A,D][B,DF][DFB][FAc])!<)! | %10
 ([=Ac]/[Bd]/)[Bd]- [Bd]([DFB]!<(! [B,DF][DFB][FBd][Fce])!<)! | %11
!mf! ([F=df]/g/e/f/ d/e/c/e/ d/e/c/e/!>(! B/A/G/F/)!>)! |!p! G2- GE/F/ G2- G(E/F/ | %13
 [B,G]/F/G/B/ [Ee]/B/[EG]/[DF]/) [CE]2- E(C/D/ | %14
 [CE]/D/[CE]/G/ [Cc]/G/F/E/) ([B,D]/C/[B,D]/F/ [B,B]/_F/E/D/) | %15
"_cresc." (C[CE] [DA][Gc] [Fd][dg] [db][gd']) |!f! ([Aea]/b/g/a/ f/g/e/g/ e/f/d/e/ c/d/B/c/) | %17
 [Fd]!p! (AFD FE) (E/F/G) | (FB/A/) (AF/D/) (FEFG) | %19
!mf! (F/A/D/A,/) (F/A/D/A,/) (F/G/D/G,/) (F/G/D/G,/) | %20
 (F/G/E/G,/) (F/G/E/G,/) (=E/F/C/F,/) (E/F/C/F,/) | %21
 (=E/F/C/F,/) (E/F/C/F,/) (=D/_E/B,/_E,/)[K:bass] (=B,/C/A,/C,/) | %22
 (C/D/A,/D,/) (F/E/D) [E,CE]4[K:treble] |!p! z (a_fd fe) (e/f/g) | (_f__b/a/) (af/d/) (fefg) | %25
!mf! (_f/a/d/A/) (f/a/d/A/) (f/g/d/G/) (f/g/d/G/) | %26
 (_f/g/e/G/) (f/g/e/G/) (e/f/_c/_F/) (e/f/c/F/) | (e/_f/d/_F/) (e/f/d/F/) (=d/e/B/E/) (=B/c/A/C/) | %28
 (c/d/A/D/) ([_fa]/[eg]/[df]) [ce]4 | [dd'] (a/g/ f/g/=g/a/ =a/b/a/b/ f/_g/f/g/) | %30
 (=g/a/g/a/ =e/f/e/f/ _g/f/_e/d/ c/d/e) | [Fd] (A/G/ F/G/=G/A/ A/__B/A/_B/ F/_G/F/G/ | %32
 =G/A/G/A/ E/_F/E/F/"_dim." _G/F/E/D/ C/E/D/C/) |[K:bass] !tenuto!D4 !tenuto!D4 | %34
 !tenuto!D4 !tenuto!D4 | (EFED) (EG/F/ ED) |!<(! [G,E]4[K:treble] e2- e>!<)!d | %37
!p! !tenuto!d4 !tenuto!d4 | !tenuto!d4 !tenuto!d4 | (efed) (eg/f/ ed) |!<(! [Ge]4 e'2- e'>d'!<)! | %41
!f! [dfd'] (A/A,/ d/D/f/F/ a/A/f/F/ a/A/[dgd']/[cc']/) | %42
 [dfd'] (A/A,/ d/D/f/F/ a/A/f/F/ a/[ee']/[dgd']/[cc']/) | %43
 ([dfd'][cgc']/[dd']/) ([dfd'][dac']/[gb]/ [dfa])[faf'] ([ege']/[dfd']/[cec']) | %44
!f! !tenuto![faf'] ([Fd]/[Ec]/ [Fd]/[Ec]/[Fd]/[Ec]/ [Fd]2) z!p! A | %45
 ([Ec]/[_Fd]/)[Fd]- [Fd][DFA]!<(! ([A,DF][DFA][FAd][Ace])!<)! | %46
 ([ce]/[d_f]/)[df]- [df][_FAd]!<(! ([DFA][FAd][Adf][Aeg])!<)! | %47
!mf! ([A_fa]/__b/g/a/ f/g/e/g/ f/g/e/f/ d/e/c/e/) | %48
 ([_Fd]/__e/_c/d/ __B/c/A/c/ B/c/A/B/!>(! G/A/=F/G/)!>)! |[K:C]!p! [A,^F]2!<(! [^CA^c]4 [CA]2!<)! | %50
 [^C^F]2!<(! [F^c^f]4 [CFc]2!<)! |!mf! ([A^fa]/b/^g/a/ f/g/^e/g/ f/g/=e/f/ d/e/^c/e/) | %52
 ([DBd]/e/^c/d/ B/c/^A/c/ B/c/=A/B/ ^G/A/F/G/) | [^G,E]2!<(! [B,^GB]4 [B,G]2!<)! | %54
 [B,E]2!<(! [EBe]4 [B,EB]2!<)! |!mf! ([^G^g]/a/^f/g/ e/f/^d/f/ e/)(b/a/b/ g/a/f/a/ | %56
 ^g/)(!courtesy!=c'/d'/b/ d'/a/d'/g/ b/a/b/g/ a/g/^f/g/ | %57
 [Aca])!p! ([ce]/E/ [Bd]/E/[Ac]/E/ [df]/E/[ce]/E/ [ce]/E/[Ac]/E/ | %58
 [Bd]/E/[^GB]/E/ [GB]/E/[Ac]/E/ [Bd]/E/[GB]/E/ [Ac]/E/[Bd]/E/- | %59
!p! [EAc]) z z2!pp! z/ (E/e/^d/ e/a/e'/^d'/ | %60
 e'/!8va(!b'/e''/^d''/ e''/b'/!8va)!e'/^d'/ e'/b/e/^d/ e/B/E) | A2- A(^F/^G/ A2- A)(F/G/ | %62
!<(! [CA]) ([ca]/[B^g]/ [ca]/[B^d]/[ce]/[Bd]/ [ce]/[^GB]/[Ac]/[GB]/ [Ac]/G/[CA]/[B,G]/!<)! | %63
 A2- A)(F/G/ A2- A)(F/G/ | %64
!<(! [FA]) ([fa]/[eg]/ [fa]/[^ce]/[df]/[ce]/ [df]/c/[Fd]/[Ec]/ [Fd]/[E^G]/[FA]/[EG]/!<)! | %65
!mf! A2- A)(E/!courtesy!=G/ A2- A)(E/G/ | %66
!<(! [CDA]) ([ac']/[^gb]/ [ac']/g/[ca]/[Bg]/ [ca]/[Bd]/[c_e]/[Bd]/ [ce]/^G/[Ac]/D/!<)! | %67
!p! [G_B]) ([Bd]/D/ [Ac]/D/[GB]/D/ [c_e]/D/[Bd]/D/ [Bd]/D/[GB]/D/ | %68
 [Ac]/D/[^FA]/D/ [FA]/D/[G_B]/D/ [Ac]/D/[FA]/D/ [GB]/D/ [Ac]/D/- | %69
!p! [DG_B]) z z2!pp! z/ (D/d/^c/ d/g/d'/^c'/ | %70
 d'/!8va(!a'/d''/^c''/ d''/a'/!8va)!d'/^c'/ d'/a/d/^c/ d/A/D) |!p! B2- (BG/A/ B2- B)(B/c/ | %72
 d2) d2 _d2 d2 | c2- c(_A/_B/ c2- c)(A/B/ | c2) c2 _c2 c2 | _B2- B(_G/_A/ B2- B)(G/A/ | %76
 _B2) B2 B2 B2 |!p! A2- A(F/G/!<(! A2- A)(A/!<)!_B/ |"_cresc." c2- c)(A/_B/ c2- c)(c/e/ | %79
 f2- f)(d/e/ f2- f)(d/e/ | %80
!f! [Af]/)[I:staff +1] A,,/F,/C,/ A,/F,/C/A,/[I:staff -1] F/C/A/F/ c/A/[_Bf]/[Ge]/ | %81
 [Af]/ A,/F/C/ A/F/c/A/ f/c/a/f/ c'/a/[_bf']/[ge']/ | %82
 [af']/f/[_bf']/[ge']/ [af']/f/[bf']/[ge']/ [af']!ff! [FAcf]"^rit."!tenuto![FAcf] !fermata![FAcf] || %83
[K:Bb]!mf!"^a tempo" z (fdB dc) (c/d/e) | (dg/f/) (fd/B/) (dcde) | %85
 (d/f/B/F/) (d/f/B/F/) (d/e/B/E/) (d/e/B/E/) | (d/e/c/E/) (d/e/c/E/) (^c/d/A/D/) (c/d/A/D/) | %87
 (^c/d/B/D/) (c/d/B/D/) (=B/=c/G/=C/) (^G/A/F/A,/) | (A/B/F/B,/) (d/c/B) [CAc]4 | %89
!p! z ([f_d'f'][_dbd'][Bgb] [dbd'][cac'] [cac']/[dbd']/[ec'e']) | %90
 ([_db_d'][_ge'_g']/[fd'f']/ [fd'f'][dbd']/[c=gb]/ [dbd'][cac'][dbd'][ec'e']) | %91
!mf! (_d'/f'/b/f/) (d'/f'/b/f/) (d'/e'/b/e/) (d'/e'/b/e/) | %92
 (_d'/e'/c'/e/) (d'/e'/c'/e/) (c'/d'/_a/_d/) (c'/d'/a/d/) | %93
 (c'/_d'/a/_d/) (c'/d'/a/d/) (=b/c'/=g/c/) (^g/a/f/A/) | %94
 (a/b/f/A/) ([f_d'f']/[c'e']/[bd']) [cac']4 | [bb']!p! (f/e/ d/e/=e/f/ ^f/g/f/g/ d/_e/d/e/ | %96
 =e/f/e/f/ ^c/d/c/d/ _e/d/=c/B/ A/B/c) | [DB] (F/E/ D/E/=E/F/ F/_G/F/G/ D/_E/D/E/) | %98
 (=E/F/E/F/ C/_D/C/D/"_dim." _E/D/C/B,/ A,/C/B,/A,/) |[K:bass]!pp! !tenuto!B,4 !tenuto!B,4 | %100
 !tenuto!B,4 !tenuto!B,4 | (CDCB,) (CE/D/ CB,) |!<(! [E,C]4[K:treble] c2- c>B!<)! | %103
!p! !tenuto!B4 !tenuto!B4 | !tenuto!B4 !tenuto!B4 | (cdcB) (ce/d/ cB) |!<(! [Ec]4 c'2- c'>b!<)! | %107
!f! [Bdb] (F/F,/ B/B,/d/D/ f/F/d/D/ f/F/[Beb]/[Aa]/) | %108
 [Bdb] (f/F/ b/B/d'/d/ f'/f/d'/d/!8va(! f'/[c'c'']/[be'b']/[aa']/ | %109
 [bd'b'])!8va)! ([Aea]/[Bb]/ [Bdb])([Bfa]/[eg]/ [FBdf])[dfd'] ([cec']/[Bdb]/[Aca]) | %110
!f! !tenuto![dfd'] ([DB]/[CA]/ [DB]/[CA]/[DB]/[CA]/ [DB]2) z F | %111
[K:Db]!p! [C=A]/[DB]/[DB]- [DB]([B,DF]!<(! [F,B,D][B,DF][DFB][FAc])!<)! | %112
 ([=Ac]/[Bd]/)[Bd]- [Bd]([DFB]!<(! [B,DF][DFB][FBd][Fce])!<)! | %113
!mf! ([F=df]/a/g/a/ f/g/e/f/ d/f/e/f/ d/!courtesy!_c/B/A/) | %114
 (G/A/F/A/ G/A/F/G/ E/G/F/G/ E/D/!courtesy!=C/B,/) | ([Ec]/e/d/e/ c/d/B/c/ =A/c/B/c/ A/G/F/E/) | %116
 (D/E/C/E/ D/E/C/D/ B,/D/C/D/ B,/C/=A,/C/) | (B,/D/C/D/ B,/C/=A,/C/ B,/!<(!D/C/D/ E/F/=G/=A/)!<)! | %118
!f! !fermata![B,D=GB]2[Q:1/4=70]"^Adagio" z B!f! !fermata![Bc_gb]3 B | %119
!f!!<(! [FBdf]F [B,EFB]F,!<)![K:bass]!ff! !fermata![D,B,]2 z2 |] %120
V:2
 z | [B,,,B,,]2 [D,,D,]2 [F,,F,]2 [F,,,F,,]2 | [B,,,B,,]2 [D,,D,]2 [F,,F,]2 [F,,,F,,]2 | %3
 ([B,,,B,,]/[I:staff -1]E/C/D/ B,/C/=A,/C/ B,/G/E/F/ D/F/[I:staff +1][F,B,]/C/) | %4
 [B,,,B,,][D,,D,][F,,F,][F,,,F,,] [B,,,B,,][D,,D,][F,,F,][B,,B,] | %5
 [F,,,F,,][A,,,=A,,][C,,C,][C,,,C,,] [F,,,F,,][B,,,B,,][C,,C,][C,,,C,,] | %6
 [F,,,F,,][A,,,=A,,][C,,C,][C,,,C,,] [F,,,F,,][B,,,B,,][C,,C,][C,,,C,,] | %7
 [F,,,F,,][B,,,B,,][C,,C,][C,,,C,,] [F,,,F,,][B,,,B,,][C,,C,][C,,,C,,] | %8
 [F,,,F,,] (F,,/C,/ F,,/C,/C,,/C,/) F,,,2 F,2 | [B,,,B,,]2 [D,,D,]2 [F,,F,]2 [F,,,F,,]2 | %10
 [B,,,B,,]2 [D,,D,]2 [F,,F,]2 [F,,,F,,]2 | %11
 ([B,,,B,,]/[I:staff -1]B/G/A/ F/G/E/G/ F/G/E/F/ =D/[I:staff +1]_C/B,/A,/) | %12
 E,,G,,B,,B,,, E,,G,,B,,B,,, | E,,[B,,B,][G,,G,][E,,E,] A,,C,E,E,, | %14
 A,,A, (=A,,/E,/F,/G,/) B,,F, (=G,,/D,/E,/_F,/) | %15
 [G,,A,,E,]2 [F,,A,,F,][E,,A,,E,] [D,,A,,D,][B,,,B,,][G,,,G,,][E,,,E,,] | %16
 ([A,,,F,,A,,]/[I:staff -1]G/E/F/ D/E/C/E/ [A,G]/A/F/G/ E/F/D/E/) | %17
[I:staff +1] [D,,,D,,] (F,D,B,, D,C,) (C,/D,/E,) | (D,G,/F,/) (F,D,/B,,/) (D,C,D,E,) | %19
 z [D,,D,] [F,,F,]3/2(3(E,/4D,/4C,/4 [B,,,B,,]2-) [B,,,B,,]3/2(3(G,,/4A,,/4B,,/4 | %20
 [C,,C,])[C,,C,] [E,,E,]3/2(3(D,/4C,/4B,,/4 [=A,,,=A,,]2-) [A,,,A,,]3/2(3(F,,/4=G,,/4A,,/4 | %21
 [B,,,B,,]2) [A,,,A,,]2 [=G,,,=G,,]2 [_G,,,_G,,]2 | [F,,,F,,]2 [D,,,D,,][F,,,F,,] [A,,,A,,]4 | %23
 D,, (_FD__B, DC) (C/D/E) | (DG/_F/) (FD/__B,/) (DCDE) | %25
 z [D,D] [_F,_F]3/2(3(E/4D/4_C/4 [__B,,__B,]2- [B,,B,]3/2)(3(G,/4A,/4B,/4 | %26
 [_C,_C])[C,C] [E,E]3/2(3(D/4C/4__B,/4 [A,,A,]2-) [A,,A,]3/2(3(_F,/4G,/4A,/4 | %27
 [__B,,__B,]2) [A,,A,]2 [=G,,=G,]2 [_G,,_G,]2 | [_F,,_F,]2 [D,,D,][F,,F,] [A,,A,]4 | %29
 [D,,D,] (F/E/ D/E/=E/F/) z/ (G/F/G/ =A/B/A/B/) | z/ (F/=E/F/ =G/A/G/A/ B/A/_G/F/ _E/F/G) | %31
 [D,,D,] (F,/E,/ D,/E,/=E,/F,/) z/ (G,/F,/G,/ A,/__B,/A,/B,/) | %32
 z/ _F,/E,/F,/ =G,/A,/G,/A,/ __B,/A,/_G,/F,/ E,/G,/F,/E,/ | !tenuto!D,,4 !tenuto!D,,4 | %34
 !tenuto!D,,4 !tenuto!D,,4 | [D,,A,,]4 [D,,A,,]4 | [D,,A,,]8 | !tenuto!D,4 !tenuto!D,4 | %38
 !tenuto!D,4 !tenuto!D,4 | [D,A,]4 [D,A,]4 | [D,A,]8[K:treble] |[K:bass] (D,, F,A,D FDF[A,EG]) | %42
 [DF] ([D,,F,]A,D FDF[A,EG]) | [DF] ([A,EGA][DFA])([G,B,EG] [A,DF])[A,,A,][G,A,EG][A,,,A,,] | %44
 [F,A,DF] (D,/A,/ D,/A,/A,,/A,/ D,2) z z | [D,,D,]2 [_F,,_F,]2 [A,,A,]2 [A,,,A,,]2 | %46
 [D,,D,]2 [_F,,_F,]2 [A,,A,]2 [A,,,A,,]2 | %47
 ([D,,,D,,]/[I:staff -1]G/E/_F/ D/E/C/E/ D/__B/G/A/ F/G/E/G/) | %48
[I:staff +1] ([D,A,]/[I:staff -1]G/__E/_F/ D/E/_C/E/ D/E/C/D/[I:staff +1] __B,/_C/A,/B,/) | %49
[K:C] [^E,,^E,]/[^F,,^F,]/[F,,F,]- [F,,F,]([^C,,^C,] [A,,,A,,][C,,C,][F,,F,][^G,,^G,]) | %50
 ([^G,,^G,]/[A,,A,]/)[A,,A,]- [A,,A,]([^F,,^F,] [^C,,^C,][F,,F,][A,,A,][B,,B,]) | %51
{/[^F,,^C,]} (^C/D/B,/C/ A,/B,/^G,/B,/ A,/B,/G,/A,/ ^F,/G,/E,/=G,/) | %52
 ([B,,^F,]/[I:staff -1]G/E/^F/ D/E/^C/E/ D/E/C/D/[I:staff +1] B,/^C/A,/B,/) | %53
 ([^D,,^D,]/[E,,E,]/)[E,,E,]- [E,,E,]([B,,,B,,] [^G,,,^G,,][B,,,B,,][E,,E,][^F,,^F,]) | %54
 ([^F,,^F,]/[G,,G,]/)[G,,G,]- [G,,G,]([E,,E,] [B,,,B,,][E,,E,][G,,G,][A,,A,]) | %55
{/[E,,B,,]} (B,/^C/A,/B,/ ^G,/A,/[B,,^F,]/A,/ [E,G,]/)(^G/^F/G/ E/F/[B,^D]/F/ | %56
 [E,E]/)(E/!courtesy!=F/D/ F/!courtesy!=C/F/B,/ D/C/D/B,/ C/B,/A,/B,/ | %57
 [A,C]) z [A,,,A,,]4- [A,,,A,,]([A,,,A,,] | !tenuto!E,3) ([A,,,A,,] !tenuto!E,2 !tenuto!E,2) | %59
 [A,,,A,,] ([CE]/E,/ [B,D]/E,/[A,C]/E,/ [DF]/E,/[CE]/E,/ [CE]/E,/[A,C]/E,/ | %60
 [B,D]/E,/[^G,B,]/E,/ [G,B,]/E,/[A,C]/E,/ [B,=D]/E,/[G,B,]/E,/ [A,C]/E,/[B,D]/E,/) | %61
!p! A,,C,E,E,, A,,C,E,E,, | A,, [A,,,A,,][C,,C,][E,,E,] [A,,A,][E,,E,][C,,C,][A,,,A,,] | %63
 D,,_B,,F,B,, D,,B,,F,B,, | D,, [D,,D,][F,,F,][_B,,_B,] [D,D][B,,B,][F,,F,][D,,D,] | %65
 E,,C,!courtesy!=G,C, E,,C,G,C, | F,,C,A,C, ^F,,D,CD, | G,, z [G,,,G,,]4- [G,,,G,,]([G,,,G,,] | %68
 !tenuto!D,3) ([G,,,G,,] !tenuto!D,2 !tenuto!D,2) | %69
 [G,,,G,,] ([_B,D]/D,/ [A,C]/D,/[G,B,]/D,/ [C_E]/D,/[B,D]/D,/ [B,D]/D,/[G,B,]/D,/ | %70
 [A,C]/D,/[^F,A,]/D,/ [F,A,]/D,/[G,_B,]/D,/ [A,!courtesy!=C]/D,/[F,A,]/D,/ [G,B,]/D,/[A,C]/D,/) | %71
 G,,_B,,D,D,, G,,B,,D,D,, | (G,,_E,_B,E,) (B,E,G,,E,) | ._A,,.C,._E,._E,, .A,,.C,.E,.E,, | %74
 (_G,,__E,_A,E,) (A,_D,F,,D,) | ._G,,._B,,._D,._D,, .G,,.B,,.D,.D,, | %76
 (F,,_D,_G,D,) (=G,C,!courtesy!=E,,C,) | .F,,.A,,.C,.C,, .F,,.A,,.C,.C,, | %78
 .F,,.A,,.C,.C,, .F,,.A,,.C,.C,, | %79
 [F,,,F,,][A,,,A,,][C,,C,][C,,,C,,] [F,,,F,,][A,,,A,,][C,,C,][C,,,C,,] | %80
 [F,,,F,,]/ F,,,/C,,/A,,,/ F,,/C,,/A,,/F,,/ C,/A,,/F,/C,/ A,/F,/C/C,/ | %81
 F,/ F,,/C,/A,,/ F,/C,/A,/F,/[I:staff -1] C/A,/F/C/ A/F/c/C/ | %82
 c/F/c/C/ c/F/c/C/ F[I:staff +1] [_G,A,C_G](!tenuto![F,A,CF]/!tenuto![E,E]/) !fermata![F,,,F,,] || %83
[K:Bb] [B,,,,B,,,] (DB,G, B,A,) (A,/B,/C) | (B,E/D/) (DB,/G,/) (B,A,B,C) | %85
 z [B,,B,] [D,D]3/2(3(C/4B,/4A,/4 [G,,G,]2- [G,,G,]3/2)(3(E,/4F,/4G,/4 | %86
 [A,,A,])[A,,A,] [C,C]3/2(3(B,/4A,/4G,/4 [^F,,^F,]2- [F,,F,]3/2)(3(D,/4=E,/4F,/4 | %87
 [G,,G,]2) [!courtesy!=F,,!courtesy!=F,]2 [=E,,=E,]2 [_E,,_E,]2 | %88
 [D,,D,]2 [B,,,B,,][D,,D,] [F,,F,]4 | ([B,,,B,,] F,/F/ B/F/_D/F,/ =E/F/_G/F/ E/F/[F,C_E]/F/) | %90
 ([B,,,B,,] F,/F/ B/F/_D/F,/ =E/F/_G/F/ E/F/[F,C_E]/F/) | %91
 z [B,,B,] [_D,_D]3/2(3(C/4B,/4A,/4 [_G,,_G,]2- [G,,G,]3/2)(3(E,/4F,/4G,/4 | %92
 [_A,,_A,])[A,,A,] [C,C]3/2(3(B,/4A,/4_G,/4 [F,,F,]2- [F,,F,]3/2)(3(_D,/4E,/4F,/4 | %93
 [_G,,_G,]2) [F,,F,]2 [=E,,=E,]2 [_E,,_E,]2 | [_D,,_D,]2 [B,,,B,,][D,,D,] [F,,F,]4 | %95
 [B,,,B,,] (D/C/ B,/C/^C/D/) z/ (E/D/E/ ^F/G/F/G/) | z/ (D/^C/D/ =E/F/E/F/ G/F/_E/D/ =C/D/E) | %97
 [B,,,B,,] (D,/C,/ B,,/C,/^C,/D,/) z/ (E,/D,/E,/ F,/_G,/F,/G,/) | %98
 z/ (_D,/C,/D,/ =E,/F,/E,/F,/ _G,/F,/_E,/D,/ C,/E,/D,/C,/) | !tenuto!B,,,4 !tenuto!B,,,4 | %100
 !tenuto!B,,,4 !tenuto!B,,,4 | [B,,,F,,]4 [B,,,F,,]4 | [B,,,F,,]8 | !tenuto!B,,4 !tenuto!B,,4 | %104
 !tenuto!B,,4 !tenuto!B,,4 | [B,,F,]4 [B,,F,]4 | [B,,F,]8[K:treble] | %107
[K:bass] B,,, (D,F,B, DB,D[F,CE]) | [B,D] ([B,,D]FB[K:treble] dBd[Fcef] | %109
 [Bdf])[K:bass] ([F,CEF][B,DF])([E,G,CE] [F,B,D])[F,,F,] [E,F,CE][F,,,F,,] | %110
 [D,F,B,D] (B,,/F,/ B,,/F,/F,,/F,/ B,,,2) z2 |[K:Db] [B,,,B,,]2 [D,,D,]2 [F,,F,]2 [F,,,F,,]2 | %112
 [B,,,B,,]2 [D,,D,]2 [F,,F,]2 [F,,,F,,]2 | %113
 ([B,,,,B,,,]/[I:staff -1]_c/B/c/ A/B/G/A/ F/A/G/A/ F/E/=D/[I:staff +1]_C/) | %114
 ([B,,B,]/_C/B,/C/ B,/C/A,/B,/ G,/B,/A,/B,/ G,/F,/E,/D,/) | %115
 ([B,,C,=A,]/[I:staff -1]G/F/G/ E/F/D/E/ C/E/D/E/ C/[I:staff +1]B,/=A,/G,/) | (B,,4 A,,4 | %117
 A,,4 G,,4) | !fermata![=E,,D,=G,]2 z B, !fermata![_E,B,C_G]3 B, | %119
 [D,F,B,D]F, [C,F,C]F,, !fermata!B,,,,2 z2 |] %120
V:3
 x | F F2 x5 | F F2 x5 | x8 | (D/B,/D/F/ D/)(B,/E/C/ D/F/=E/F/ D/C/D/_E/) | %5
 (C/=A,/C/F/ C/)(A,/=D/B,/ C/D/C/B,/ B,/!courtesy!=A,/A,/=G,/) | %6
 (=A,/F,/A,/C/ A,/)(F,/B,/=G,/ A,/B,/C/B,/ A,/G,/F,/G,/) | %7
 (=A,/B,/C/B,/ _A,/=G,/F,/G,/ =A,)=D CB, | x8 | F F2 x5 | F F2 x5 | x8 | %12
 (B,/G,/B,/E/ B,/G,/_C/A,/) B,/G,/B,/E/ B,/G,/C/A,/ | x4 (C/E,/A,/C/ [A,C]/E,/) z | x8 | %15
 C/A,/C/A,/ D/A,/G/C/ F/D/d/G/ d/B/g/d/ | x8 | x A/A,/ F/C/D/A,/ F/A,/E/A,/ z G/A,/ | %18
 F/A,/ z F/A,/ z F/A,/E/A,/ F/A,/G/A,/ | x8 | x8 | x6[K:bass] x2 | %22
 x2 A,A,/D,/ z/ (C,/E,/A,/[K:treble] C/E/A/[Ee]/) | x a/A/ _f/A/d/A/ f/A/e/A/ z g/A/ | %24
 _f/A/ z a/A/ z f/A/e/A/ f/A/g/A/ | x8 | x8 | x8 | x4 z/ (C/E/A/ c/e/a) | x8 | x8 | x8 | x8 | %33
[K:bass] z!pp! (G,F,E,) (F,A,/G,/ F,E,) | (F,/G,/A,/F,/ G,/D,/G,/D,/) (F,/G,/A,/F,/ G,/D,/G,/B,/) | %35
 (G,/A,/G,/A,/ G,/A,/G,/A,/ G,/A,/G,/A,/ G,/A,/G,/A,/- | %36
 A,/C/B,/D/ C/E/D/F/[K:treble] E/G/F/A/ G/A/G/F/) | (FGFE) (FA/G/ FE) | %38
 (F/G/A/F/ G/D/G/D/) (F/G/A/F/ G/D/G/B/) | (G/A/G/A/ G/A/G/A/ G/A/G/A/ G/A/G/A/- | %40
 A/c/B/d/ c/e/d/f/ e/g/f/a/ g/a/g/f/) | x8 | x8 | x8 | x8 | A A2 x5 | A A2 x5 | x8 | x8 |[K:C] x8 | %50
 x8 | x8 | x8 | x8 | x8 | x8 | x8 | x8 | x8 | x8 | x/!8va(! x5/2!8va)! x5 | %61
 (C/A,/C/E/ C/A,/D/B,/) (C/A,/C/E/ C/A,/D/B,/) | x8 | %63
 (F/_B,/D/F/ D/B,/D/B,/) F/B,/D/F/ D/B,/D/B,/ | x8 | %65
 (C/A,/C/E/ C/A,/C/A,/) (C/A,/C/E/ C/A,/C/A,/) | x8 | x8 | x8 | x8 | x/!8va(! x5/2!8va)! x5 | %71
 (D/_B,/D/G/ D/B,/D/^F/) (G/B,/D/G/ D/B,/D/A/) | (_B/_E/D/E/) (B/E/D/E/) (B/E/_D/E/) (B/E/D/E/) | %73
 (_A/C/_E/A/ E/C/E/G/) (A/C/E/A/ E/C/E/G/) | (_A/__E/C/E/) (A/E/C/E/) (A/_D/_C/D/) (A/D/C/D/) | %75
 (_G/_B,/_D/G/ D/B,/D/F/) (G/B,/D/G/ D/B,/D/F/) | %76
 (_G/_D/_B,/D/) (G/D/B,/D/) (=G/C/B,/C/) (G/C/B,/C/) | %77
 (F/A,/C/F/ C/A,/D/E/) (F/A,/C/F/ C/A,/F/G/) | (A/C/F/A/ F/C/F/G/) (A/C/F/A/ F/C/A/_B/) | %79
 (A/F/A/c/ A/F/_B/G/) (A/F/A/c/ A/F/B/G/) | x8 | x8 | x8 ||[K:Bb] x f/F/ d/F/B/F/ d/F/c/F/ z e/F/ | %84
 d/F/ z f/F/ z d/F/c/F/ d/F/e/F/ | x8 | x8 | x8 | x2 FF/B,/ z/ (A,/C/F/ A/c/f/[cc']/) | x8 | x8 | %91
 x8 | x8 | x8 | x4 z/ (A,/C/F/ A/c/f) | x8 | x8 | x8 | x8 |[K:bass] z (E,D,C,) (D,F,/E,/ D,C,) | %100
 (D,/E,/F,/D,/ E,/B,,/E,/B,,/) (D,/E,/F,/D,/ E,/B,,/E,/G,/) | %101
 (E,/F,/E,/F,/ E,/F,/E,/F,/ E,/F,/E,) (E,/F,/E,/F,/- | %102
 F,/A,/G,/B,/ A,/C/B,/D/[K:treble] C/E/D/F/ E/F/E/D/) | DEDC (DF/E/ DC) | %104
 (D/E/F/D/ E/B,/E/B,/) (D/E/F/D/ E/B,/E/G/) | (E/F/E/F/ E/F/E/F/ E/F/E) (E/F/E/F/- | %106
 F/A/G/B/ A/c/B/d/ c/e/d/f/ e/f/e/d/) | x8 | x6!8va(! x2 | x!8va)! x7 | x8 |[K:Db] F F2 x5 | %112
 F F2 x5 | x8 | x8 | x8 | x8 | x8 | x8 | x4[K:bass] x4 |] %120
V:4
 x | x8 | x8 | x8 | x8 | x8 | x8 | x8 | %8
 x ([F,=A,]/[=E,=G,]/ [F,A,]/[E,G,]/[F,A,]/[E,G,]/) [F,A,]2 z2 | x8 | x8 | x8 | x8 | x8 | x8 | x8 | %16
 x8 | x4 A,,4 | D,,4 A,,4 | x8 | x8 | x8 | x4 z/ (E,,/A,,/C,/ E,/A,/C/) z/ | x4 A,4 | D,4 A,4 | %25
 x8 | x8 | x8 | x4 z/ (E,/A,/C/ E/A/c) | x4 D4 | D4 D4 | x4 D,4 | D,4 D,4 | %33
 z (B,,A,,G,,) (A,,C,/B,,/ A,,G,,) | %34
 (A,,/B,,/_C,/A,,/ B,,/G,,/B,,/G,,/) (A,,/B,,/C,/A,,/ B,,/G,,/B,,/D,/) | %35
 (!courtesy!=C,D,C,B,,) (C,E,/D,/ C,B,,) | C,/E,/D,/F,/ E,/G,/F,/A,/ G,/B,/A,/C/ B,/C/B,/A,/ | %37
 (A,B,A,G,) (A,C/B,/ A,G,) | (A,/B,/_C/A,/ B,/G,/B,/G,/) (A,/B,/C/A,/ B,/G,/B,/D/) | %39
 (!courtesy!=CDCB,) (CE/D/ CB,) | (C/E/D/F/ E/G/F/A/[K:treble] G/B/A/c/ B/c/B/A/) |[K:bass] x8 | %42
 x8 | x8 | x8 | x8 | x8 | x8 | x8 |[K:C] x8 | x8 | x8 | x8 | x8 | x8 | x8 | x8 | x8 | x8 | x8 | %60
 x8 | x8 | x8 | x8 | x8 | x8 | x8 | x8 | x8 | x8 | x8 | x8 | x8 | x8 | x8 | x8 | x8 | x8 | x8 | %79
 x8 | x8 | x8 | x7{/!fermata![_E,A,C_E]-} !fermata![E,A,CE] ||[K:Bb] x4 F,4 | B,,4 F,4 | x8 | x8 | %87
 x8 | x4 z/ (C,/F,/A,/ C/F/A/) z/ | x8 | x8 | x8 | x8 | x8 | x4 z/ (C,/F,/A,/ C/F/A) | x4 B,4 | %96
 B,4 B,4 | x4 B,,4 | B,,4 B,,4 | z (G,,F,,E,,) (F,,A,,/G,,/ F,,E,,) | %100
 (F,,/G,,/_A,,/F,,/ G,,/E,,/G,,/E,,/) (F,,/G,,/A,,/F,,/ G,,/E,,/G,,/B,,/) | %101
 (=A,,B,,A,,G,,) (A,,C,/B,,/ A,,G,,) | (A,,/C,/B,,/D,/ C,/E,/D,/F,/ E,/G,/F,/A,/ G,/A,/G,/F,/) | %103
 (F,G,F,E,) (F,A,/G,/ F,E,) | (F,/G,/_A,/F,/ G,/E,/G,/E,/) (F,/G,/A,/F,/ G,/E,/G,/B,/) | %105
 (!courtesy!=A,B,A,G,) (A,C/B,/ A,G,) | (A,/C/B,/D/ C/E/D/F/[K:treble] E/G/F/A/ G/A/G/F/) | %107
[K:bass] x8 | x4[K:treble] x4 | x[K:bass] x7 | x8 |[K:Db] x8 | x8 | x8 | x8 | x8 | %116
 F,/G,/E,/G,/ F,/G,/E,/F,/ D,/F,/E,/F,/ D,/E,/C,/E,/ | %117
 D,/F,/E,/F,/ D,/E,/C,/E,/ D,/F,/E,/D,/ C,/D,/B,,/C,/ | x8 | %119
 x4{/!fermata![B,,,F,,]-} !fermata![B,,,F,,]2 x2 |] %120
V:5
 x | x8 | x8 | x8 | x8 | x8 | x8 | x8 | x8 | x8 | x8 | x8 | x8 | x8 | x8 | x8 | x8 | x8 | x8 | x8 | %20
 x8 | x6[K:bass] x2 | x6[K:treble] x2 | x8 | x8 | x8 | x8 | x8 | x8 | x8 | x8 | x8 | x8 | %33
[K:bass] x G,/D,/ F,/D,/E,/D,/ F,/D,/ z F,/D,/E,/D,/ | x8 | x8 | x4[K:treble] x4 | %37
 F/D/G/D/ F/D/E/D/ F/D/ z F/D/E/D/ | x8 | x8 | x8 | x8 | x8 | x8 | x8 | x8 | x8 | x8 | x8 | %49
[K:C] x8 | x8 | x8 | x8 | x8 | x8 | x8 | x8 | x8 | x8 | x8 | x/!8va(! x5/2!8va)! x5 | x8 | x8 | %63
 x8 | x8 | x8 | x8 | x8 | x8 | x8 | x/!8va(! x5/2!8va)! x5 | x8 | x8 | x8 | x8 | x8 | x8 | x8 | %78
 x8 | x8 | x8 | x8 | x8 ||[K:Bb] x8 | x8 | x8 | x8 | x8 | x8 | x8 | x8 | x8 | x8 | x8 | x8 | x8 | %96
 x8 | x8 | x8 |[K:bass] x E,/B,,/ D,/B,,/C,/B,,/ D,/B,,/ z D,/B,,/C,/B,,/ | x8 | x8 | %102
 x4[K:treble] x4 | D/B,/E/B,/ D/B,/C/B,/ D/B,/ z D/B,/C/B,/ | x8 | x8 | x8 | x8 | x6!8va(! x2 | %109
 x!8va)! x7 | x8 |[K:Db] x8 | x8 | x8 | x8 | x8 | x8 | x8 | x8 | x4[K:bass] x4 |] %120

